X:196
T:The Baker's Dozen Reel
R:reel
C:Bruce Osborne - Nov. 2002
Z:abc by bosborne@kos.net
M:2/4
L:1/8
K:Amaj
E/D/|C/E/A,/C/ E/A,/C/E/|A/c/B/A/ c/E/A/c/|e/a/g/f/ e/c/A/c/|B/A/G/A/ BE/D/|\
C/E/A,/C/ E/A,/C/E/|A/c/B/A/ c/E/A/c/|e/a/g/f/ e/c/A/c/|B/A/G/B/ A:|
|:G/A/|B/E/E/E/ B/E/G/B/|c/A/A/A/ c/A/E/A/|B/E/E/E/ B/E/G/B/|A/F/E/C/ A,G/A/|\
B/E/E/E/ B/E/G/B/|c/A/A/A/ c/A/E/A/|B/E/E/E/ B/E/G/B/|A/c/B/G/ A:|
